X: 162
T: 163. F\"ur Freuden la\sst uns springen
N: Derived from chor163.krn
C: Johann Sebastian Bach
%%abc-version 2.0
%%abcx-abcm2ps-target-version 5.9.1 (29 Sep 2008)
%%abc-creator hum2abc beta
%%abcx-conversion-date 2019/03/11 17:28:18
%%abc-edited-by Craig Stuart Sapp
%%humdrum-veritas 98913472
%%humdrum-veritas-data 1813117794
%%
%%barnumbers 0
L: 1/8
M: C
%%staves [1 2 3 4]
V: 1 clef=treble
V: 2 clef=treble
V: 3 clef=treble-8
V: 4 clef=bass
K: Bb
[V:1] d2 [I:setbarnb 1]| 
[V:2] G^F | 
[V:3] Bc | 
[V:4] G,,A,, | 
[V:1] d2d2d2c2 | 
[V:2] G2^FG AG2F | 
[V:3] dc/B/A2-ABcd | 
[V:4] B,,C,D,=E, ^F,G,A,D, | 
[V:1] B4!fermata!A2d2 | 
[V:2] G^FG2!fermata!F2=F2 | 
[V:3] d2d2!fermata!d2dc | 
[V:4] G,A,B,C!fermata!D2B,A, | 
[V:1] def2e2d2 | 
[V:2] G2F2c2-cB | 
[V:3] B2B2-BA/G/ Ff | 
[V:4] G,F,E,D, C,F, B,,D, | 
[V:1] c4!fermata!d2 :|]  
[V:2] B2A2!fermata!B2 :|]  
[V:3] g2f2!fermata!f2 :|]  
[V:4] E,C,F,2!fermata!B,,2 :|]  
[V:1] d2 [I:setbarnb 5]| 
[V:2] BA | 
[V:3] f2 | 
[V:4] B,,2 | 
[V:1] c2B2A2G2 | 
[V:2] G2G2-G^FG2 | 
[V:3] ed=e2Ad/c/ Bc/B/ | 
[V:4] C,3^C,D,2E,=E, | 
[V:1] A2B2!fermata!A2d2 | 
[V:2] CA D=E!fermata!^F2A2- | 
[V:3] Ad/c/ B/A/G!fermata!d2d2 | 
[V:4] F,^F, G,^C,!fermata!D,2F,2 | 
[V:1] B2B2c2d2 | 
[V:2] A2GF F_E _AG | 
[V:3] d2efg2fd- | 
[V:4] G,=F,_E,D,C,3=B,, | 
[V:1] e2d2c2c2 | 
[V:2] G2G2=A2AG | 
[V:3] dc d=e ^fAde | 
[V:4] C,C2_B, A,G,^F,G, | 
[V:1] d3c!fermata!=B2 |]  
[V:2] ^FG2F!fermata!G2 |]  
[V:3] dc/B/ Ad!fermata!d2 |]  
[V:4] D,4!fermata!G,2 |]  



